X: 2063
T: INVERCAULD
C:
Q: "Strathspey."
R: Strathspey.
%R: strathspey
B: James Kerr "Merry Melodies" v.2 p.9 #63
Z: 2016 John Chambers <jc:trillian.mit.edu>
N: Initial rest added to match the rhythms at the ends of the strains.
M: C
L: 1/8
K: Am
z |\
vD/D/D uE>uG vA>vG (E<G) | D/D/D/ uE>uG vc3 ue |\
vd<Bvg>uB A>GE>G | D/D/D/ uE>uG A3 ::\
uB |\
vc>vAuB>uG vA>vGuE>uG | c>Bc>d e>^fg>e |\
d>Bg>B A>GE>G | D/D/D E>G A3 :|
